assets/icons/standard/case_email.svg

<?xml version="1.0"?><svg xmlns="http://www.w3.org/2000/svg" width="100" height="100" viewBox="0 0 100 100"><path fill="#fff" d="m38 30h4c0.6 0 1-0.4 1-1v-3h14v3c0 0.6 0.4 1 1 1h4c0.6 0 1-0.4 1-1v-3c0-3.3-2.7-6-6-6h-14c-3.3 0-6 2.7-6 6v3c0 0.6 0.4 1 1 1z m36 6h-48c-3.3 0-6 2.7-6 6v32c0 3.3 2.7 6 6 6h48c3.3 0 6-2.7 6-6v-32c0-3.3-2.7-6-6-6z m-36.1 11.1h24.3c0.8 0 0.9 0.7 0.7 1.1l-12.3 11.4c-0.3 0.3-0.8 0.3-1.2 0l-12.2-11.3c-0.5-0.6 0-1.2 0.7-1.2z m25.1 16.9c0 1.4-1.6 3-3 3h-20c-1.4 0-3-1.6-3-3v-10.9c0-0.6 0.7-0.9 1.1-0.5l9.6 8.9c0.6 0.6 1.5 0.9 2.3 0.9s1.7-0.3 2.3-0.9l9.5-8.9c0.4-0.4 1.1-0.2 1.1 0.3 0.1 0.9 0.1 10.8 0.1 11.1z"></path></svg>

<svg xmlns="http://www.w3.org/2000/svg" x="0px" y="0px" width="100" height="100"
	 viewBox="0 0 100 100" style="enable-background:new 0 0 100 100;" xml:space="preserve">

<g>
	<g>
		<path fill="#FFFFFF" d="M38,30h4c0.6,0,1-0.4,1-1v-3h14v3c0,0.6,0.4,1,1,1h4c0.6,0,1-0.4,1-1v-3c0-3.3-2.7-6-6-6H43c-3.3,0-6,2.7-6,6
			v3C37,29.6,37.4,30,38,30z"/>
	</g>
	<g>
		<path fill="#FFFFFF" d="M74,36H26c-3.3,0-6,2.7-6,6v32c0,3.3,2.7,6,6,6h48c3.3,0,6-2.7,6-6V42C80,38.7,77.3,36,74,36z M37.9,47.1
			l24.3,0c0.8,0,0.9,0.7,0.7,1.1L50.6,59.6c-0.3,0.3-0.8,0.3-1.2,0L37.2,48.3C36.7,47.7,37.2,47.1,37.9,47.1z M63,64
			c0,1.4-1.6,3-3,3H40c-1.4,0-3-1.6-3-3c0,0,0-7.4,0-10.9c0-0.6,0.7-0.9,1.1-0.5l9.6,8.9c0.6,0.6,1.5,0.9,2.3,0.9s1.7-0.3,2.3-0.9
			l9.5-8.9c0.4-0.4,1.1-0.2,1.1,0.3C63,53.8,63,63.7,63,64z"/>
	</g>
</g>
</svg>
